svg/s/TF.svg

<svg width="16" height="12" viewBox="0 0 16 12" fill="none" xmlns="http://www.w3.org/2000/svg">
<g clip-path="url(#clip0_270_55057)">
<rect width="16" height="12" fill="white"/>
<path fill-rule="evenodd" clip-rule="evenodd" d="M0 0V12H16V0H0Z" fill="#2E42A5"/>
<mask id="mask0_270_55057" style="mask-type:luminance" maskUnits="userSpaceOnUse" x="0" y="0" width="16" height="12">
<path fill-rule="evenodd" clip-rule="evenodd" d="M0 0V12H16V0H0Z" fill="white"/>
</mask>
<g mask="url(#mask0_270_55057)">
<path fill-rule="evenodd" clip-rule="evenodd" d="M9.39444 3.09998H11.3986H11.4144H13.4186L13.0265 3.85199H11.8057V4.25592H12.7416L12.3604 4.95553H11.8057V6.35467L12.7193 4.91503L13.9016 6.96234H13.4186L13.2499 6.73818H12.1797L11.4272 8.12864L11.4274 8.20545L11.4065 8.16687L11.3856 8.20545L11.3858 8.12864L10.6333 6.73818H9.56314L9.39444 6.96234H8.91141L10.0938 4.91503L11.0074 6.35467V3.85199H9.78652L9.39444 3.09998ZM12.7428 5.75473L12.4802 6.15859H12.9773L12.7428 5.75473ZM10.0702 5.75473L10.3328 6.15859H9.8357L10.0702 5.75473ZM8.15683 5.3066L8.57235 5.00026L8.98786 5.3066L8.84127 4.79325L9.24467 4.46923L8.73855 4.4583L8.57235 3.9517L8.40614 4.4583L7.90002 4.46923L8.30342 4.79325L8.15683 5.3066ZM14.2277 5.00026L13.8122 5.3066L13.9588 4.79325L13.5554 4.46923L14.0615 4.4583L14.2277 3.9517L14.3939 4.4583L14.9 4.46923L14.4966 4.79325L14.6432 5.3066L14.2277 5.00026ZM12.5397 8.90163L12.9552 8.59529L13.3708 8.90163L13.2242 8.38828L13.6276 8.06426L13.1215 8.05333L12.9552 7.54674L12.789 8.05333L12.2829 8.06426L12.6863 8.38828L12.5397 8.90163ZM9.8448 8.59529L9.42928 8.90163L9.57587 8.38828L9.17248 8.06426L9.67859 8.05333L9.8448 7.54674L10.011 8.05333L10.5171 8.06426L10.1137 8.38828L10.2603 8.90163L9.8448 8.59529ZM10.9845 10.1L11.4 9.79364L11.8155 10.1L11.669 9.58663L12.0723 9.26261L11.5662 9.25168L11.4 8.74508L11.2338 9.25168L10.7277 9.26261L11.1311 9.58663L10.9845 10.1Z" fill="#F7FCFF"/>
<path fill-rule="evenodd" clip-rule="evenodd" d="M4 0H6V5H4V0Z" fill="#F50100"/>
<path fill-rule="evenodd" clip-rule="evenodd" d="M0 0H2V5H0V0Z" fill="#2E42A5"/>
<path fill-rule="evenodd" clip-rule="evenodd" d="M2 0H4V5H2V0Z" fill="#F7FCFF"/>
</g>
</g>
<defs>
<clipPath id="clip0_270_55057">
<rect width="16" height="12" fill="white"/>
</clipPath>
</defs>
</svg>

<svg width="16" height="12" fill="none" xmlns="http://www.w3.org/2000/svg">
  <mask id="a" maskUnits="userSpaceOnUse" x="0" y="0" width="16" height="12">
    <path fill="#fff" d="M0 0h16v12H0z"/>
  </mask>
  <g mask="url(#a)">
    <path fill-rule="evenodd" clip-rule="evenodd" d="M0 0v12h16V0H0z" fill="#2E42A5"/>
    <mask id="b" maskUnits="userSpaceOnUse" x="0" y="0" width="16" height="12">
      <path fill-rule="evenodd" clip-rule="evenodd" d="M0 0v12h16V0H0z" fill="#fff"/>
    </mask>
    <g mask="url(#b)">
      <path fill-rule="evenodd" clip-rule="evenodd" d="M9.394 3.1h4.025l-.393.752h-1.22v.404h.936l-.382.7h-.554v1.399l.913-1.44 1.183 2.047h-.483l-.17-.224h-1.07l-.752 1.39v.077l-.02-.038-.021.038V8.13l-.753-1.39h-1.07l-.169.223h-.483l1.183-2.047.913 1.44V3.852h-1.22L9.394 3.1zm3.349 2.655l-.263.404h.497l-.234-.404zm-2.673 0l.263.404h-.497l.234-.404zm-1.913-.448L8.572 5l.416.307-.147-.514.404-.324-.506-.01-.167-.507-.166.506-.506.011.403.324-.146.514zM14.227 5l-.415.307.147-.514-.404-.324.507-.01.166-.507.166.506.506.011-.403.324.146.514L14.228 5zM12.54 8.902l.415-.307.416.307-.147-.514.404-.324-.507-.01-.166-.507-.166.506-.506.011.403.324-.146.514zm-2.695-.307l-.416.307.147-.514-.404-.324.507-.01.166-.507.166.506.506.011-.403.324.146.514-.415-.307zm1.14 1.505l.415-.306.415.306-.146-.513.403-.324-.506-.011-.166-.507-.166.507-.506.01.403.325-.146.513z" fill="#F7FCFF"/>
      <path fill="#2E42A5" stroke="#fff" stroke-width=".5" d="M-.25-.25h6.5v5.5h-6.5z"/>
      <mask id="c" maskUnits="userSpaceOnUse" x="-1" y="-1" width="8" height="7">
        <path fill="#fff" stroke="#fff" stroke-width=".5" d="M-.25-.25h6.5v5.5h-6.5z"/>
      </mask>
      <g mask="url(#c)" fill-rule="evenodd" clip-rule="evenodd">
        <path d="M4 0h2v5H4V0z" fill="#F50100"/>
        <path d="M0 0h2v5H0V0z" fill="#2E42A5"/>
        <path d="M2 0h2v5H2V0z" fill="#F7FCFF"/>
      </g>
    </g>
  </g>
</svg>
